X:46
T:Steyrer Tanz in G, nr. 2
C:traditionell
R:Steirer
A:Hallstatt, Salzkammergut
B:Corpus Musicae Popularis Austriacae (COMPA), 5.Band: J.M.Schmalnauer " Tanz Musik", Verlag Boehlau, Wien 1996
S:manuscript des Johann Michael Schmalnauer um 1820
N:im der quelle in G
Z:abc transcription Simon Wascher
F:http://simonwascher.info/TradArchiv/
M:3/4
L:1/8
K:G
V:1
%violino 1mo
(B,C |\
D2) (FA)(ce) | d2 B"o"DGB | d2 "o"cDFA | G2 BDB,C |\
D2 (FA)(ce) | d2 B"o"DGB | d2 "o"cDFA | "in D"G4 :|
V:2
%violino 2do
(G,A,) |\
B,2 DFAc | B2 GG,B,D | B2 AFDC | B,2 DB,G,A, |\
B,2 DFAc | B2 GG,B,D | B2 AFDC | B,4 :|
